dist/images/icons/icon-category-asia.svg

<svg width="44" height="44" viewBox="0 0 44 44" fill="none" xmlns="http://www.w3.org/2000/svg">
<g clip-path="url(#clip0_669_808)">
<g clip-path="url(#clip1_669_808)">
<path d="M15.1315 13.5668H17.2563C17.8077 13.5668 18.2562 14.0153 18.2562 14.5667V16.0316C18.2562 16.3875 18.5448 16.6761 18.9007 16.6761C19.2567 16.6761 19.5453 16.3875 19.5453 16.0316V14.5667C19.5453 13.3045 18.5184 12.2777 17.2563 12.2777H15.1315C14.5894 12.2777 14.1484 11.8367 14.1484 11.2946C14.1484 10.7525 14.5894 10.3116 15.1315 10.3116H19.843C21.0959 10.3116 22.1151 9.29226 22.1151 8.03937C22.1151 6.78649 21.0958 5.76727 19.843 5.76727H16.0738C15.7179 5.76727 15.4293 6.05585 15.4293 6.4118C15.4293 6.76776 15.7179 7.05634 16.0738 7.05634H19.843C20.3851 7.05634 20.8261 7.49737 20.8261 8.03937C20.8261 8.58147 20.385 9.0225 19.843 9.0225H15.1315C13.8786 9.0225 12.8593 10.0418 12.8593 11.2946C12.8593 12.5475 13.8786 13.5668 15.1315 13.5668V13.5668Z" fill="black"/>
<path d="M7.38855 17.8925H9.49711C10.0414 17.8925 10.4844 18.3354 10.4844 18.8798V20.3336C10.4844 20.6895 10.7729 20.9781 11.1289 20.9781C11.4848 20.9781 11.7734 20.6895 11.7734 20.3336V18.8798C11.7734 17.6246 10.7522 16.6034 9.49711 16.6034H7.38855C6.85333 16.6034 6.41797 16.168 6.41797 15.6329C6.41797 15.0977 6.85341 14.6623 7.38855 14.6623H9.85384C10.2098 14.6623 10.4984 14.3737 10.4984 14.0178C10.4984 13.6618 10.2098 13.3732 9.85384 13.3732H7.38855C6.14254 13.3732 5.12891 14.3869 5.12891 15.6329C5.12891 16.8789 6.14254 17.8925 7.38855 17.8925Z" fill="black"/>
<path d="M25.6523 26.8125C26.0083 26.8125 26.2969 26.5239 26.2969 26.168C26.2969 25.812 26.0083 25.5234 25.6523 25.5234C25.2964 25.5234 25.0078 25.812 25.0078 26.168C25.0078 26.5239 25.2964 26.8125 25.6523 26.8125Z" fill="black"/>
<path d="M28.832 28.2734C29.188 28.2734 29.4766 27.9849 29.4766 27.6289C29.4766 27.2729 29.188 26.9844 28.832 26.9844C28.4761 26.9844 28.1875 27.2729 28.1875 27.6289C28.1875 27.9849 28.4761 28.2734 28.832 28.2734Z" fill="black"/>
<path d="M30.7227 30.5078C31.0786 30.5078 31.3672 30.2192 31.3672 29.8633C31.3672 29.5073 31.0786 29.2188 30.7227 29.2188C30.3667 29.2188 30.0781 29.5073 30.0781 29.8633C30.0781 30.2192 30.3667 30.5078 30.7227 30.5078Z" fill="black"/>
<path d="M28.0586 25.2656C28.4146 25.2656 28.7031 24.9771 28.7031 24.6211C28.7031 24.2651 28.4146 23.9766 28.0586 23.9766C27.7026 23.9766 27.4141 24.2651 27.4141 24.6211C27.4141 24.9771 27.7026 25.2656 28.0586 25.2656Z" fill="black"/>
<path d="M25.9102 30.9375C26.2661 30.9375 26.5547 30.6489 26.5547 30.293C26.5547 29.937 26.2661 29.6484 25.9102 29.6484C25.5542 29.6484 25.2656 29.937 25.2656 30.293C25.2656 30.6489 25.5542 30.9375 25.9102 30.9375Z" fill="black"/>
<path d="M42.9114 22.811H41.083L41.9867 20.9433C43.1331 20.7151 44 19.7014 44 18.4889C44 17.2453 43.0882 16.2112 41.8981 16.0187C40.5827 13.6495 38.0131 11.8702 34.8968 11.1599V11.1108C34.8968 10.7548 34.6083 10.4662 34.2523 10.4662C33.9573 10.4662 33.7091 10.6647 33.6326 10.9352C33.2401 10.8846 32.8407 10.8518 32.4363 10.835C32.333 10.6172 32.1116 10.4662 31.8545 10.4662C31.5973 10.4662 31.376 10.6172 31.2726 10.835C30.8681 10.8518 30.4687 10.8846 30.0762 10.9353C29.9997 10.6648 29.7516 10.4662 29.4565 10.4662C29.1005 10.4662 28.812 10.7548 28.812 11.1108V11.1599C25.6958 11.8702 23.1261 13.6496 21.8108 16.0187C20.6207 16.2112 19.709 17.2453 19.709 18.4889C19.709 18.5616 19.7123 18.6334 19.7184 18.7044C16.7427 18.9811 14.0692 20.2243 12.0633 22.0896H8.01359C7.73755 22.0896 7.4904 22.2135 7.32316 22.408H5.43039C5.12033 21.6246 4.35067 21.071 3.47342 21.071C2.31344 21.071 1.36976 22.0147 1.36976 23.1747C1.36976 23.2738 1.37758 23.3717 1.39124 23.4683C0.580851 23.7609 0 24.5376 0 25.4475C0 25.8515 0.114727 26.2398 0.325445 26.5722C0.114727 26.9047 0 27.2931 0 27.6971C0 28.857 0.94368 29.8007 2.10366 29.8007C2.98091 29.8007 3.75057 29.2471 4.06063 28.4637H5.76537C5.84358 28.751 6.0592 28.988 6.35087 29.0871L8.37177 29.7733C8.35974 29.9815 8.35321 30.1911 8.35321 30.4022C8.35321 30.601 8.35888 30.7989 8.36945 30.9961C8.05346 31.0723 7.75852 31.2031 7.49607 31.3792C7.06398 31.0894 6.54491 30.9198 5.98666 30.9198C4.48791 30.9198 3.26863 32.1391 3.26863 33.6378C3.26863 33.6608 3.27035 33.6834 3.27095 33.7062H2.51685C2.09129 33.7062 1.71411 33.9452 1.53244 34.33C1.35077 34.7148 1.40585 35.1579 1.6763 35.4864L3.6098 37.836C3.81743 38.0881 4.12371 38.2327 4.45036 38.2327H31.7103C32.0663 38.2327 32.3548 37.9442 32.3548 37.5882C32.3548 37.2323 32.0663 36.9437 31.7103 36.9437H4.54498L2.94147 34.9952H42.4853L40.8818 36.9437H34.7181C34.362 36.9437 34.0735 37.2323 34.0735 37.5882C34.0735 37.9442 34.362 38.2327 34.7181 38.2327H40.9764C41.3031 38.2327 41.6095 38.088 41.8169 37.8359L43.7504 35.4865C44.0207 35.1579 44.0759 34.7148 43.8942 34.33C43.7126 33.9451 43.3354 33.7062 42.9099 33.7062H42.2716C42.905 32.6101 43.143 31.3111 42.9119 30.0346C42.8639 29.7702 42.657 29.5632 42.3925 29.5153C40.6466 29.1992 38.857 29.758 37.6048 31.0101C37.5283 31.0866 37.4554 31.1658 37.3842 31.2463C37.0148 31.0462 36.594 30.9302 36.1474 30.9214V29.695H36.835C37.925 29.695 38.8117 28.8083 38.8117 27.7184V26.8532H42.9114C43.5116 26.8532 44 26.3648 44 25.7646V23.8996C44 23.2993 43.5116 22.811 42.9114 22.811V22.811ZM6.29054 33.7062H4.56002C4.5589 33.6836 4.5577 33.6609 4.5577 33.6379C4.5577 32.85 5.1987 32.209 5.98666 32.209C6.21079 32.209 6.42254 32.2615 6.61126 32.354C6.40535 32.7366 6.28813 33.1738 6.28813 33.6379C6.28822 33.6609 6.28994 33.6834 6.29054 33.7062ZM38.5163 31.9217C39.3595 31.0786 40.5223 30.6483 41.7005 30.7268C41.7727 31.8121 41.412 32.8848 40.6953 33.7062H39.6325L40.5131 32.8256C40.7648 32.5739 40.7648 32.1658 40.5131 31.9142C40.2613 31.6625 39.8533 31.6625 39.6015 31.9142L38.6882 32.8275C38.6075 32.5699 38.4893 32.3287 38.3402 32.1101C38.3969 32.0457 38.4553 31.9827 38.5163 31.9217ZM25.5032 13.9422C26.4787 13.2887 27.6054 12.7985 28.812 12.4902V13.1534C28.812 13.5094 29.1005 13.798 29.4565 13.798C29.8126 13.798 30.1011 13.5094 30.1011 13.1534V12.2346C30.4665 12.1826 30.8368 12.1482 31.2099 12.1291V13.1534C31.2099 13.5094 31.4984 13.798 31.8545 13.798C32.2105 13.798 32.499 13.5094 32.499 13.1534V12.1291C32.8721 12.1483 33.2424 12.1827 33.6077 12.2346V13.1534C33.6077 13.5094 33.8962 13.798 34.2523 13.798C34.6083 13.798 34.8968 13.5094 34.8968 13.1534V12.4902C36.1035 12.7985 37.2302 13.2887 38.2057 13.9423C39.1561 14.579 39.9304 15.3479 40.4945 16.1983C40.2768 16.2941 40.0729 16.4201 39.89 16.5733C39.4452 16.2006 38.8773 15.9862 38.2829 15.9862C37.6885 15.9862 37.1205 16.2005 36.6758 16.5733C36.231 16.2006 35.663 15.9862 35.0687 15.9862C34.4743 15.9862 33.9063 16.2005 33.4616 16.5733C33.0168 16.2006 32.4488 15.9862 31.8545 15.9862C31.26 15.9862 30.6921 16.2005 30.2473 16.5733C29.8025 16.2006 29.2346 15.9862 28.6402 15.9862C28.0458 15.9862 27.4778 16.2005 27.0331 16.5733C26.5884 16.2006 26.0204 15.9862 25.426 15.9862C24.8316 15.9862 24.2637 16.2006 23.8189 16.5733C23.6361 16.4201 23.4321 16.2941 23.2144 16.1983C23.7785 15.3478 24.5528 14.579 25.5032 13.9422V13.9422ZM22.2117 17.2752C22.642 17.2752 23.0441 17.5078 23.2612 17.8822C23.3765 18.081 23.5889 18.2035 23.8188 18.2035C24.0486 18.2035 24.261 18.0811 24.3763 17.8823C24.5935 17.5078 24.9957 17.2752 25.4259 17.2752C25.8562 17.2752 26.2584 17.5078 26.4755 17.8822C26.5908 18.081 26.8031 18.2035 27.033 18.2035C27.2629 18.2035 27.4752 18.0811 27.5906 17.8822C27.8077 17.5078 28.2098 17.2752 28.6401 17.2752C29.0703 17.2752 29.4725 17.5078 29.6898 17.8823C29.8051 18.0811 30.0175 18.2035 30.2472 18.2035C30.4771 18.2035 30.6895 18.0811 30.8048 17.8822C31.0219 17.5078 31.4241 17.2752 31.8544 17.2752C32.2846 17.2752 32.6868 17.5078 32.904 17.8823C33.0192 18.0811 33.2317 18.2035 33.4615 18.2035C33.6914 18.2035 33.9037 18.0811 34.019 17.8822C34.2361 17.5078 34.6383 17.2752 35.0686 17.2752C35.4988 17.2752 35.901 17.5078 36.1182 17.8823C36.2336 18.0811 36.4459 18.2035 36.6757 18.2035C36.9056 18.2035 37.118 18.0811 37.2333 17.8822C37.4504 17.5078 37.8525 17.2752 38.2828 17.2752C38.713 17.2752 39.1152 17.5078 39.3325 17.8823C39.4477 18.0811 39.6602 18.2035 39.89 18.2035C40.1198 18.2035 40.3322 18.0811 40.4475 17.8822C40.6646 17.5078 41.0668 17.2752 41.4971 17.2752C42.1663 17.2752 42.7108 17.8196 42.7108 18.4889C42.7108 19.1581 42.1663 19.7026 41.4971 19.7026C41.0668 19.7026 40.6646 19.4699 40.4475 19.0955C40.3322 18.8967 40.1198 18.7743 39.89 18.7743C39.6602 18.7743 39.4477 18.8966 39.3325 19.0954C39.1152 19.4699 38.713 19.7026 38.2828 19.7026C37.8525 19.7026 37.4504 19.4699 37.2333 19.0955C37.118 18.8967 36.9056 18.7743 36.6757 18.7743C36.4459 18.7743 36.2335 18.8966 36.1182 19.0954C35.901 19.4699 35.4988 19.7026 35.0686 19.7026C34.6383 19.7026 34.2361 19.4699 34.019 19.0955C33.9037 18.8967 33.6914 18.7743 33.4615 18.7743C33.2317 18.7743 33.0192 18.8966 32.904 19.0954C32.6868 19.4699 32.2846 19.7026 31.8544 19.7026C31.4241 19.7026 31.0219 19.4699 30.8048 19.0955C30.6895 18.8967 30.4771 18.7743 30.2472 18.7743C30.0175 18.7743 29.805 18.8966 29.6898 19.0954C29.4725 19.4699 29.0703 19.7026 28.6401 19.7026C28.2098 19.7026 27.8077 19.4699 27.5906 19.0955C27.4752 18.8967 27.2629 18.7743 27.033 18.7743C26.8031 18.7743 26.5908 18.8966 26.4755 19.0955C26.3486 19.3143 26.1583 19.4842 25.9363 19.588C24.4222 18.9848 22.7569 18.6492 21.0094 18.6459C21.0026 18.5944 20.998 18.5422 20.998 18.4889C20.998 17.8196 21.5424 17.2752 22.2117 17.2752V17.2752ZM8.39163 23.3786H10.8635C10.6095 23.695 10.3712 24.0227 10.1518 24.3624H8.39163V23.3786ZM5.7328 27.1746H3.5567C3.22145 27.1746 2.94216 27.4317 2.9144 27.7658C2.87968 28.1841 2.52355 28.5117 2.10375 28.5117C1.65455 28.5117 1.28915 28.1463 1.28915 27.6971C1.28915 27.4535 1.397 27.2245 1.58512 27.0689C1.7331 26.9464 1.81878 26.7644 1.81878 26.5722C1.81878 26.3801 1.7331 26.1981 1.58512 26.0756C1.397 25.92 1.28915 25.691 1.28915 25.4474C1.28915 24.9982 1.65455 24.6328 2.10375 24.6328C2.52355 24.6328 2.87968 24.9604 2.9144 25.3786C2.94216 25.7128 3.22145 25.9698 3.5567 25.9698H5.73289V27.1746H5.7328ZM5.95332 24.6808H4.06063C3.82362 24.082 3.31779 23.6185 2.70093 23.4328C2.67343 23.3505 2.65873 23.2635 2.65873 23.1746C2.65873 22.7254 3.02414 22.36 3.47334 22.36C3.89314 22.36 4.24927 22.6877 4.28407 23.1059C4.31183 23.44 4.59113 23.697 4.92637 23.697H7.10256V24.3624H6.64383C6.3678 24.3624 6.12055 24.4864 5.95332 24.6808V24.6808ZM10.433 33.7062H7.5796C7.57848 33.6836 7.57728 33.6609 7.57728 33.6379C7.57728 32.85 8.21829 32.209 9.00625 32.209C9.79421 32.209 10.4352 32.85 10.4352 33.6379C10.4353 33.6609 10.434 33.6836 10.433 33.7062ZM30.3116 33.7062H28.0679C28.0668 33.6836 28.0656 33.6609 28.0656 33.6379C28.0656 32.85 28.7066 32.209 29.4946 32.209C29.8885 32.209 30.2459 32.3692 30.5046 32.628C30.3791 32.9405 30.3093 33.2811 30.3093 33.6379C30.3092 33.6609 30.311 33.6834 30.3116 33.7062ZM29.4946 30.9198C27.9959 30.9198 26.7765 32.1391 26.7765 33.6378C26.7765 33.6608 26.7782 33.6834 26.7788 33.7062H11.722C11.7226 33.6833 11.7244 33.6608 11.7244 33.6378C11.7244 32.3649 10.8446 31.2941 9.66135 31.0001C9.64915 30.8017 9.64227 30.6024 9.64227 30.4022C9.64227 30.3365 9.64322 30.271 9.64451 30.2055L16.2366 32.444C16.6807 32.5948 17.1349 32.6691 17.5847 32.6691C18.4345 32.6691 19.2687 32.4038 19.9891 31.8877C21.0906 31.0984 21.7223 29.8685 21.7223 28.5134C21.7223 28.0289 21.6392 27.5535 21.4753 27.1006C21.3541 26.7658 20.9846 26.5928 20.6498 26.7139C20.3151 26.8351 20.142 27.2046 20.2632 27.5394C20.3761 27.8512 20.4334 28.1789 20.4334 28.5133C20.4334 29.4476 19.9978 30.2956 19.2383 30.8397C18.479 31.3839 17.5359 31.5236 16.6512 31.2233L7.02195 27.9534V25.6515H17.5715C17.8948 25.6515 18.2133 25.7056 18.5182 25.8125C18.8543 25.9304 19.222 25.7534 19.3397 25.4174C19.4575 25.0814 19.2805 24.7137 18.9446 24.5959C18.5023 24.441 18.0403 24.3623 17.5715 24.3623H11.7273C13.7835 21.6856 17.1654 19.9345 20.9831 19.9345C27.2364 19.9345 32.3238 24.6303 32.3238 30.4021C32.3238 30.6084 32.3166 30.8136 32.3036 31.0179C31.9142 31.1258 31.5596 31.3184 31.2609 31.5746C30.7855 31.1669 30.1685 30.9198 29.4946 30.9198V30.9198ZM34.454 33.7062H31.6006C31.5995 33.6836 31.5983 33.6609 31.5983 33.6379C31.5983 32.85 32.2393 32.209 33.0272 32.209C33.8152 32.209 34.4563 32.85 34.4563 33.6379C34.4563 33.6609 34.4551 33.6836 34.454 33.7062ZM34.8583 31.2197C34.7555 31.2726 34.6558 31.3305 34.5611 31.3955C34.2745 31.1988 33.9482 31.0569 33.5974 30.9816C33.6073 30.7893 33.6128 30.5962 33.6128 30.4023C33.6128 30.1647 33.6029 29.9293 33.5878 29.6951H34.8583V31.2197ZM37.5226 33.6378C37.5226 33.6608 37.5214 33.6835 37.5203 33.7062H35.743C35.7436 33.6833 35.7454 33.6608 35.7454 33.6378C35.7454 33.1811 35.6316 32.7505 35.4317 32.3723C35.6296 32.268 35.8547 32.2089 36.0937 32.2089C36.8816 32.2089 37.5226 32.8499 37.5226 33.6378ZM37.5226 27.7185C37.5226 28.0976 37.2142 28.406 36.835 28.406H33.4281C33.33 27.8758 33.1959 27.3568 33.0241 26.8532H37.5226V27.7185ZM42.7109 25.5641H32.4932C32.2456 25.0558 31.9601 24.5669 31.6404 24.1H34.375C34.731 24.1 35.0195 23.8114 35.0195 23.4554C35.0195 23.0995 34.731 22.8109 34.375 22.8109H30.6187C30.0022 22.134 29.3059 21.5222 28.5421 20.9894C28.5747 20.9907 28.6074 20.9916 28.6401 20.9916C29.2345 20.9916 29.8024 20.7772 30.2472 20.4045C30.692 20.7772 31.26 20.9916 31.8544 20.9916C32.4487 20.9916 33.0167 20.7772 33.4615 20.4045C33.9062 20.7772 34.4743 20.9916 35.0686 20.9916C35.6629 20.9916 36.2309 20.7772 36.6757 20.4045C37.1204 20.7772 37.6885 20.9916 38.2828 20.9916C38.8772 20.9916 39.4451 20.7772 39.89 20.4045C40.105 20.5847 40.3489 20.7274 40.6106 20.8273L39.6508 22.8109H37.3828C37.0268 22.8109 36.7383 23.0995 36.7383 23.4554C36.7383 23.8114 37.0268 24.1 37.3828 24.1H42.7109V25.5641Z" fill="black"/>
</g>
</g>
<defs>
<clipPath id="clip0_669_808">
<rect width="44" height="44" fill="white"/>
</clipPath>
<clipPath id="clip1_669_808">
<rect width="44" height="44" fill="white"/>
</clipPath>
</defs>
</svg>

<svg width="44" height="44" fill="none" xmlns="http://www.w3.org/2000/svg"><g clip-path="url(#clip0_669_808)"><g clip-path="url(#clip1_669_808)" fill="#000"><path d="M15.132 13.567h2.124a1 1 0 011 1v1.465a.645.645 0 001.29 0v-1.465a2.292 2.292 0 00-2.29-2.29h-2.124a.984.984 0 010-1.965h4.711a2.275 2.275 0 002.272-2.273 2.275 2.275 0 00-2.272-2.272h-3.77a.645.645 0 000 1.29h3.77a.984.984 0 010 1.966h-4.711a2.275 2.275 0 00-2.273 2.272 2.275 2.275 0 002.273 2.272zm-7.743 4.325h2.108c.544 0 .987.443.987.988v1.454a.644.644 0 101.29 0V18.88a2.279 2.279 0 00-2.277-2.277H7.39a.972.972 0 010-1.94h2.465a.645.645 0 000-1.29H7.389a2.262 2.262 0 00-2.26 2.26 2.262 2.262 0 002.26 2.26zm18.263 8.921a.645.645 0 100-1.29.645.645 0 000 1.29zm3.18 1.46a.645.645 0 100-1.289.645.645 0 000 1.29zm1.891 2.235a.645.645 0 100-1.29.645.645 0 000 1.29zm-2.664-5.242a.644.644 0 100-1.29.644.644 0 000 1.29zm-2.149 5.672a.645.645 0 100-1.29.645.645 0 000 1.29z"/><path d="M42.911 22.811h-1.828l.904-1.868A2.507 2.507 0 0044 18.49a2.506 2.506 0 00-2.102-2.47c-1.315-2.37-3.885-4.149-7.001-4.86v-.048a.645.645 0 00-1.264-.176 13.86 13.86 0 00-1.197-.1.644.644 0 00-1.163 0 14.2 14.2 0 00-1.197.1.644.644 0 00-1.264.176v.049c-3.116.71-5.686 2.49-7.001 4.859a2.506 2.506 0 00-2.093 2.685c-2.975.277-5.649 1.52-7.655 3.386h-4.05a.909.909 0 00-.69.318H5.43a2.118 2.118 0 00-1.957-1.337 2.106 2.106 0 00-2.082 2.397 2.107 2.107 0 00-1.066 3.104 2.106 2.106 0 001.778 3.229c.878 0 1.648-.554 1.958-1.337h1.704a.91.91 0 00.586.623l2.02.686a10.898 10.898 0 00-.002 1.223c-.316.076-.61.207-.873.383a2.7 2.7 0 00-1.51-.46 2.721 2.721 0 00-2.717 2.719l.002.068h-.754a1.08 1.08 0 00-.985.624 1.08 1.08 0 00.144 1.156l1.934 2.35c.207.252.514.397.84.397h27.26a.644.644 0 100-1.29H4.545l-1.604-1.948h39.544l-1.603 1.949h-6.164a.645.645 0 100 1.289h6.258c.327 0 .633-.145.84-.397l1.934-2.35a1.08 1.08 0 00.144-1.156 1.079 1.079 0 00-.984-.624h-.638a5.411 5.411 0 00.64-3.671.645.645 0 00-.52-.52 5.409 5.409 0 00-5.008 1.731c-.37-.2-.79-.316-1.237-.325v-1.226h.688a1.98 1.98 0 001.977-1.977v-.865h4.1c.6 0 1.088-.488 1.088-1.088V23.9c0-.6-.488-1.089-1.089-1.089zM6.291 33.706H4.56l-.002-.068a1.43 1.43 0 012.053-1.284c-.206.383-.323.82-.323 1.284 0 .023.002.045.003.068zm32.225-1.784a4.116 4.116 0 013.184-1.195 4.118 4.118 0 01-1.005 2.98h-1.063l.881-.881a.644.644 0 10-.911-.912l-.914.913a2.712 2.712 0 00-.348-.717c.057-.064.115-.127.176-.188zm-13.013-17.98a10.716 10.716 0 013.309-1.452v.663a.645.645 0 101.29 0v-.918c.364-.052.735-.087 1.108-.106v1.024a.645.645 0 101.289 0V12.13c.373.02.743.054 1.109.106v.918a.645.645 0 101.289 0v-.663c1.206.309 2.333.799 3.309 1.452.95.637 1.724 1.406 2.288 2.256a2.526 2.526 0 00-.604.375 2.506 2.506 0 00-1.607-.587c-.595 0-1.163.215-1.607.587a2.506 2.506 0 00-1.607-.587c-.595 0-1.163.215-1.607.587a2.506 2.506 0 00-1.608-.587 2.51 2.51 0 00-1.607.587 2.506 2.506 0 00-1.607-.587 2.51 2.51 0 00-1.607.587 2.506 2.506 0 00-1.607-.587 2.51 2.51 0 00-1.607.587 2.524 2.524 0 00-.605-.375c.565-.85 1.339-1.619 2.29-2.256zm-3.291 3.333c.43 0 .832.233 1.05.607a.645.645 0 001.114 0 1.22 1.22 0 011.05-.607c.43 0 .832.233 1.05.607a.644.644 0 001.115 0 1.219 1.219 0 011.05-.607c.43 0 .832.233 1.049.607a.644.644 0 001.115 0 1.22 1.22 0 011.05-.607c.43 0 .832.233 1.049.607a.644.644 0 001.115 0 1.22 1.22 0 011.05-.607c.43 0 .832.233 1.05.607a.645.645 0 001.114 0 1.22 1.22 0 011.05-.607c.43 0 .832.233 1.05.607a.644.644 0 001.114 0c.218-.374.62-.607 1.05-.607a1.215 1.215 0 010 2.428c-.43 0-.832-.233-1.05-.607a.645.645 0 00-1.114 0c-.218.374-.62.607-1.05.607a1.22 1.22 0 01-1.05-.607.645.645 0 00-1.115 0 1.22 1.22 0 01-1.05.607c-.43 0-.832-.233-1.049-.607a.644.644 0 00-1.115 0 1.22 1.22 0 01-1.05.607c-.43 0-.832-.233-1.05-.607a.645.645 0 00-1.114 0c-.218.374-.62.607-1.05.607-.43 0-.832-.233-1.05-.607a.645.645 0 00-1.114 0 1.22 1.22 0 01-.54.492 13.364 13.364 0 00-4.927-.942 1.215 1.215 0 011.202-1.37zM8.392 23.38h2.472c-.255.316-.493.644-.712.983h-1.76v-.983zm-2.66 3.796H3.558a.645.645 0 00-.643.59.818.818 0 01-.81.747.815.815 0 01-.519-1.443.645.645 0 000-.993.813.813 0 111.33-.697.645.645 0 00.642.59h2.176v1.206zm.221-2.494H4.061a2.128 2.128 0 00-1.36-1.248.814.814 0 111.583-.327.645.645 0 00.642.591h2.177v.665h-.46a.91.91 0 00-.69.319zm4.48 9.025H7.58a1.43 1.43 0 011.427-1.497 1.43 1.43 0 011.428 1.429l-.002.068zm19.879 0h-2.244l-.002-.068a1.43 1.43 0 012.439-1.01 2.704 2.704 0 00-.196 1.01c0 .023.002.045.003.068zm-.817-2.786a2.721 2.721 0 00-2.719 2.718c0 .023.002.045.003.068H11.722l.002-.068c0-1.273-.88-2.344-2.063-2.638a9.739 9.739 0 01-.016-.794l6.592 2.238a4.113 4.113 0 003.753-.556 4.106 4.106 0 001.732-3.375c0-.484-.083-.96-.247-1.412a.645.645 0 10-1.212.438c.113.312.17.64.17.974a2.83 2.83 0 01-1.195 2.327 2.83 2.83 0 01-2.587.383l-9.629-3.27v-2.302h10.55c.323 0 .641.055.946.162a.644.644 0 10.427-1.217 4.144 4.144 0 00-1.373-.234h-5.845c2.056-2.676 5.438-4.427 9.256-4.427 6.253 0 11.34 4.695 11.34 10.467 0 .206-.006.412-.02.616a2.71 2.71 0 00-1.042.557 2.705 2.705 0 00-1.766-.655zm4.959 2.786h-2.853a1.43 1.43 0 011.427-1.497 1.43 1.43 0 011.428 1.429c0 .023 0 .046-.002.068zm.404-2.486c-.102.053-.202.11-.297.175a2.704 2.704 0 00-.964-.413 10.977 10.977 0 00-.01-1.287h1.271v1.525zm2.665 2.418c0 .023-.002.046-.003.068h-1.777l.002-.068a2.7 2.7 0 00-.313-1.266 1.43 1.43 0 012.09 1.265zm0-5.92c0 .38-.309.688-.688.688h-3.407a10.96 10.96 0 00-.404-1.553h4.499v.865zm5.188-2.154H32.493a11.526 11.526 0 00-.853-1.464h2.735a.645.645 0 000-1.29h-3.756a12.417 12.417 0 00-2.077-1.82l.098.002c.595 0 1.162-.215 1.607-.588a2.506 2.506 0 001.607.588c.595 0 1.163-.215 1.608-.588a2.506 2.506 0 001.607.588c.594 0 1.162-.215 1.607-.588a2.506 2.506 0 001.607.588c.594 0 1.162-.215 1.607-.588.215.18.459.323.72.423l-.96 1.984h-2.267a.644.644 0 100 1.289h5.328v1.464z"/></g></g><defs><clipPath id="clip0_669_808"><path fill="#fff" d="M0 0h44v44H0z"/></clipPath><clipPath id="clip1_669_808"><path fill="#fff" d="M0 0h44v44H0z"/></clipPath></defs></svg>
